X: 26460
T: Metsäkukkia
R: waltz
M: 3/4
K: Fdorian
K: Cmin
|:.G/.G/.G|G2 c2- cd|e2 d2 c2|g2 g^f ga|g4 .G/.G/.G|G2 c2- cd|e2 d2 c2|a2 ag ab|a3 b ba|
f2 g2- ga|a2 g2- gf|f2 e2- ef|g6|G2 ^F2 G2|e4 d2|1 c2 c=B cd|c4:|2 c6-|c2||
c'2 =b2|b6-|b2 c'2- c'a|g6-|g2 a2- ag|f6-|f2 g2- gf|e6-|e2 f2- fe|
d6-|d2 e2- ed|c6-|c6|G2 ^F2 G2|e4 d2|c6-|c4 c'=b|
b6-|b2 c'2 ag|g6-|g2 a2 g2|f6-|f2 g2 f2|e6-|e2 f2 e2|
d6-|d2 e2- ed|c6-|c6|G2 ^F2 G2|e4 d2|c2 c=B cd|c4||
|:c'=b|.c'z .g2 z^f|.gz e2- ed|e2 c4-|c4 fg|a2 ag ab|a4- af|g2 g^f ga|g2- g^f ga|
g2 f2- f=e|f3 =e fg|f2 e2- ed|e6|G2 ^F2 G2|e4 d2|c6-|c4:|

